dist/images/info/4.svg

<svg width="52" height="55" viewBox="0 0 52 55" fill="none" xmlns="http://www.w3.org/2000/svg">
<path d="M47.7154 41.5034L47.521 41.448C44.7066 40.6826 43.7546 39.9507 42.5019 39.4691C38.0577 37.7587 36.9014 36.525 36.6057 35.9426C36.5957 35.9224 36.5874 35.899 36.5774 35.8788L36.5491 31.9546C38.9265 28.7394 40.6262 24.7271 40.6262 20.5703C40.6262 20.5703 42.2311 13.6609 38.3933 7.15849L38.3916 7.12916C38.3883 7.13002 38.3833 7.13002 38.3766 7.13088C37.5459 5.72688 36.4609 4.34296 35.0488 3.05132C33.5719 1.70113 29.9284 0 25.534 0C22.5252 0 19.1643 0.797285 15.9062 3.05143C9.58622 7.42468 10.2242 18.4539 10.2242 18.4539C10.2242 18.4539 10.6661 18.5664 11.462 18.6721C11.4038 19.2897 11.3739 19.9226 11.3739 20.5704C11.3739 24.7271 13.0735 28.7395 15.451 31.9547L15.4227 35.8789C15.4127 35.8991 15.4045 35.9225 15.3945 35.9427C15.0988 36.5252 13.9424 37.7588 9.49818 39.4692C8.24551 39.9508 7.29355 40.6827 4.47912 41.4481L4.28475 41.5035C1.72285 42.3596 0 44.7597 0 47.4688V55H20.4152H26.0008H31.7559H32.8906H44.233H52V47.4688C52 44.7597 50.2771 42.3595 47.7154 41.5034ZM34.3095 35.8941L34.3128 36.3792L34.5005 36.8022C34.5171 36.8391 34.5454 36.9079 34.5869 36.9885C34.6417 37.0959 34.7048 37.2016 34.7713 37.3057L32.0516 38.7425L30.5961 37.497C31.8455 36.7534 33.1099 35.7581 34.2994 34.5698L34.3095 35.8941ZM28.1109 42.3947H23.8893L23.2347 39.0848L23.7864 38.6115C24.5623 38.87 25.3082 39.0077 26.001 39.0077C26.7287 39.0077 27.5179 38.8532 28.3386 38.5696L28.7905 38.9573L28.1109 42.3947ZM37.4113 13.6056C36.9145 13.0366 36.358 12.5708 35.7516 12.2116C36.2101 11.0887 36.7883 10.4148 37.3017 10.0112C37.9264 11.4471 38.3467 13.0056 38.5494 14.6471C38.5809 14.9039 38.6075 15.154 38.6274 15.399C38.2619 14.7084 37.8616 14.1201 37.4113 13.6056ZM12.9407 12.7304C13.2713 11.0418 13.7597 9.5497 14.3977 8.29673C15.1354 6.84148 16.0741 5.7127 17.1872 4.94227C19.7291 3.18323 22.5385 2.29195 25.534 2.29195C29.3984 2.29195 32.487 3.80005 33.527 4.75095C34.5837 5.71689 35.4858 6.79615 36.2268 7.9736C35.3263 8.5829 34.3295 9.63026 33.6167 11.4279C33.2446 11.3632 32.8608 11.3305 32.4687 11.3305C30.7757 11.3305 28.9515 11.9088 26.8914 13.0979C21.9288 15.9622 17.3384 16.564 14.3611 16.564C13.6484 16.564 13.022 16.5288 12.5021 16.4817C12.547 15.4788 12.6632 14.1528 12.9407 12.7304ZM13.7249 18.8466C13.9309 18.8525 14.1419 18.855 14.3611 18.855C17.6806 18.855 22.6565 18.1819 28.0162 15.0877C29.8205 14.0463 31.2792 13.6216 32.4687 13.6216C35.3246 13.6216 36.6188 16.0705 37.3964 18.2861C37.6622 19.0447 37.9962 19.5676 38.3451 19.9251C38.3534 20.1383 38.3584 20.354 38.3584 20.5705C38.3584 24.3446 36.6588 28.466 33.6949 31.8776C32.3924 33.3781 30.9336 34.632 29.4766 35.5064C28.1741 36.2852 26.9397 36.7149 26.0009 36.7149C25.0605 36.7149 23.8262 36.2852 22.5236 35.5064C21.0666 34.6302 19.6079 33.3781 18.3053 31.8776C15.3414 28.466 13.6418 24.3446 13.6418 20.5705C13.6417 19.9847 13.67 19.4098 13.7249 18.8466ZM21.5068 37.5574L20.1228 38.7423L17.2719 37.2367C17.3218 37.1544 17.3699 37.0723 17.4131 36.9884C17.453 36.9095 17.4829 36.8424 17.4979 36.8021L17.6872 36.3791L17.6905 35.8939L17.7005 34.5696C18.9233 35.7917 20.2242 36.8088 21.5068 37.5574ZM2.2679 52.7072V47.4687C2.2679 45.76 3.34948 44.2477 4.961 43.6921L5.08732 43.6552C7.20891 43.0778 8.38023 42.5121 9.3222 42.0556C9.68606 41.881 10.0001 41.7266 10.3057 41.6091C11.9804 40.9646 14.0704 40.075 15.6072 38.9438L20.4236 41.4884L21.256 40.7767L21.8425 43.7375L20.706 52.7072H2.2679ZM26.0009 52.7072H22.9921L24.0088 44.6875H27.9879L29.1359 52.7072H26.0009ZM35.1585 52.7072V50.4178H41.9636V52.7072H35.1585ZM49.7322 52.7072H44.233V48.125H40.8304C40.8304 47.4922 40.3221 46.9803 39.6957 46.9803H37.4279C36.8015 46.9803 36.2931 47.4923 36.2931 48.125H32.8906V52.7072H31.4286L30.1493 43.7777L30.769 40.6491L31.7509 41.4883L36.4659 38.9958C37.9961 40.1035 40.048 40.9764 41.6961 41.6108C42.0001 41.7266 42.314 41.8811 42.6779 42.0557C43.6199 42.5122 44.7912 43.0779 46.9128 43.6553L47.0391 43.6922C48.6523 44.2478 49.7322 45.7601 49.7322 47.4688V52.7072Z" fill="#989898"/>
</svg>

<svg width="52" height="56" fill="none" xmlns="http://www.w3.org/2000/svg"><path d="M47.715 41.514l-.194-.055c-2.815-.766-3.767-1.498-5.02-1.98-4.443-1.71-5.6-2.943-5.895-3.526l-.029-.064-.028-3.924c2.377-3.215 4.077-7.227 4.077-11.384 0 0 1.605-6.91-2.233-13.412l-.002-.03c-.003.002-.008.002-.014.003a17.78 17.78 0 00-3.328-4.08c-1.477-1.35-5.12-3.051-9.515-3.051-3.009 0-6.37.797-9.628 3.051-6.32 4.373-5.682 15.403-5.682 15.403s.442.112 1.238.218c-.058.617-.088 1.25-.088 1.898 0 4.157 1.7 8.17 4.077 11.384l-.028 3.925-.029.063c-.295.583-1.452 1.816-5.896 3.527-1.253.482-2.205 1.213-5.019 1.979l-.194.055A6.28 6.28 0 000 47.48v7.532h52V47.48a6.28 6.28 0 00-4.285-5.965zm-13.406-5.61l.004.486.188.423c.016.037.044.106.086.186.055.108.118.213.184.317l-2.72 1.437-1.455-1.245c1.25-.744 2.514-1.74 3.703-2.928l.01 1.325zm-6.198 6.501h-4.222l-.654-3.31.551-.473c.776.259 1.522.396 2.215.396.728 0 1.517-.154 2.337-.438l.452.388-.68 3.437zm9.3-28.789a6.816 6.816 0 00-1.66-1.394c.459-1.122 1.037-1.796 1.55-2.2a16.751 16.751 0 011.248 4.636c.032.257.058.507.078.752a9.273 9.273 0 00-1.216-1.794zm-24.47-.875c.33-1.688.819-3.18 1.457-4.434.737-1.455 1.676-2.584 2.79-3.354 2.541-1.759 5.35-2.65 8.346-2.65 3.864 0 6.953 1.508 7.993 2.459a15.663 15.663 0 012.7 3.222c-.9.61-1.898 1.657-2.61 3.455a6.7 6.7 0 00-1.148-.098c-1.693 0-3.518.579-5.578 1.768-4.962 2.864-9.553 3.466-12.53 3.466a20.7 20.7 0 01-1.859-.082c.045-1.003.161-2.33.439-3.752zm.784 6.116c.206.006.417.009.636.009 3.32 0 8.296-.673 13.655-3.768 1.804-1.041 3.263-1.466 4.453-1.466 2.855 0 4.15 2.45 4.927 4.665.266.758.6 1.281.949 1.639.008.213.013.429.013.645 0 3.774-1.7 7.896-4.663 11.307-1.303 1.5-2.761 2.755-4.218 3.63-1.303.778-2.537 1.208-3.476 1.208-.94 0-2.175-.43-3.477-1.209-1.457-.876-2.916-2.128-4.219-3.629-2.964-3.411-4.663-7.533-4.663-11.307 0-.586.028-1.16.083-1.724zm7.782 18.711l-1.384 1.185-2.851-1.505c.05-.083.098-.165.141-.249.04-.079.07-.146.085-.186l.19-.423.003-.485.01-1.325c1.222 1.222 2.523 2.24 3.806 2.988zm-19.24 15.15v-5.239a3.99 3.99 0 012.694-3.776l.126-.037c2.122-.577 3.293-1.143 4.235-1.6.364-.174.678-.329.984-.446 1.674-.645 3.764-1.534 5.301-2.665l4.817 2.544.832-.712.586 2.961-1.136 8.97H2.268zm23.734 0h-3.009l1.017-8.02h3.979l1.148 8.02H26zm9.157 0v-2.29h6.806v2.29h-6.806zm14.574 0h-5.5v-4.582H40.83a1.14 1.14 0 00-1.134-1.145h-2.268a1.14 1.14 0 00-1.135 1.145h-3.402v4.582h-1.462l-1.28-8.93.62-3.128.982.839 4.715-2.492c1.53 1.107 3.582 1.98 5.23 2.615.304.115.618.27.982.444.942.457 2.113 1.023 4.235 1.6l.126.037a3.988 3.988 0 012.693 3.776v5.239z" fill="#989898"/></svg>
